X: 13520
T: Flowers Of Red Hill, The
R: reel
M: 4/4
K: Ddorian
|:AD2D cDBD|AD2D AGEG|aD2D A2dB|cAGE CDEG:|
Ad2d ed2d|Addc AcGc|Ad2d ed2d|AGAB cAGc|
Ad2d ed2d|AddB cccd|e2ec dcAG|Addc AGEG||

